X:1
T:Title
%%score { ( 1 2 ) | ( 3 4 ) }
L:1/8
M:6/8
K:F
V:1 treble nm="Grand Piano"
V:2 treble 
V:3 bass 
V:4 bass 
V:1
 z3 z z[Q:1/4=84] z/ G/ | A2 A GFG | A3 z2 A | F2 F [EG][DF][EG] | A3- A2 z/ G/ | AAA GFG | %6
 A3 c2 [Fd] | [Fc]2 [CFA] [A,F]2 [B,EG] |[M:5/8] [A,F]-[A,F]- [A,F]3 |[M:1/8] [Fc] | %10
[M:3/4] [Fd]2 [Fd][DB] [_Ec][Fd] | d2 c c2 A | [EG]2 [EG][EG] F[CEG] | F3- [Fc]2 c | %14
 [Fd]2 [Fd][DB] [_Ec][Fd] | d2 c c2 A | G2 c=B cd | [Ec]6 |[M:1/8] z/ G/ |[M:3/4] A2 AG FG | %20
 A4 z A | F2 F[EG] [DF][EG] | A4- A z/ G/ | AA AG FG | A3 c2 [Fd] | [Fc]2 [CFA] [A,F]2 [B,EG] | %26
[M:13/8] [A,F]-[A,F]- [A,F]3 z z z z z z z2 |] %27
V:2
 z3 z2 F | x6 | z2 F c2 z/ A,/ | x6 | z3 z2 F | x6 | x6 | x6 |[M:5/8] x5 |[M:1/8] x |[M:3/4] x6 | %11
 x6 | x6 | [CA]4 z2 | x6 | x6 | x6 | z2 z B,3 |[M:1/8] F |[M:3/4] x6 | z2 F c2 z/ A,/ | x6 | %22
 z2 z2 z F | x6 | x6 | x6 |[M:13/8] x13 |] %27
V:3
 z3 z2 A,/B,/ | [F,CF]2 [F,CF] [F,B,F][F,A,][K:treble][F,B,F] | .[CF]3 [CA]2[K:bass] .[F,CF] | %3
 [D,A,]2 [D,A,] [C,C]2 [C,C] | [F,CF]3- [F,CF]2 A,/B,/ | [F,CF][F,CF][F,CF] [F,B,F][F,A,][F,B,F] | %6
 C3 z3 | [C,A,]2 C, C,2 C, |[M:5/8] F,-F,- F,3 |[M:1/8] [F,A,] | %10
[M:3/4] [B,,B,]2 [B,,B,] [B,,B,]2 [B,,B,] | [F,B,F]2 [F,A,F] [F,A,F]2 [F,CF] | [C,C]2 .[C,C]2 DC, | %13
 z2 z A,2 [F,A,F] | [B,,B,]2 [B,,B,] [B,,B,]2 [B,,B,] | [F,B,F]2 [F,A,F] [F,A,F]2 [F,CF] | %16
 [G,CE]2 [G,CE][DF] [CE][G,=B,F] | C4 z2 |[M:1/8] A,/B,/ | %19
[M:3/4] [F,CF]2 [F,CF][F,B,F] [F,A,][K:treble][F,B,F] | [CF]2 z [CA]2[K:bass] .[F,CF] | %21
 [D,A,]2 [D,A,] [C,C]2 [C,C] | [F,CF]4- [F,CF]A,/B,/ | [F,CF][F,CF] [F,CF][F,B,F] [F,A,][F,B,F] | %24
 C4 z2 | [C,A,]2 C, C,2 C, |[M:13/8] F,-F,- F,3 z z z z z z z2 |] %27
V:4
 z3 z2 F, | x5[K:treble] x | F,6[K:bass] | x6 | z3 z2 F, | x6 | [F,F]3- [F,A,F]2 [B,,B,] | x6 | %8
[M:5/8] x5 |[M:1/8] x |[M:3/4] x6 | x6 | z2 z .[C,C]3 | F,6 | x6 | x6 | z2 z .G,3 | C,6 | %18
[M:1/8] F, |[M:3/4] x5[K:treble] x | F,6[K:bass] | x6 | z2 z2 z F, | x6 | %24
 [F,F]3- [F,A,F]2 [B,,B,] | x6 |[M:13/8] x13 |] %27

